X:1
T: Fly Not Yet
C:
R:Jig
Q:180
K:G
M:6/8
L:1/16
|:G4G2 G4A2|B4c2 d4B2|d4e2 f4g2|a4g2 f2e2d2|
b4a2 g4f2|g4f2 e4d2|e4f2 g4e2|d4c2 B4A2|
G6 g6|G6 g6|b4a2 g4f2|g4f2 e4d2|
e4f2 g4e2|d4c2 B4A2|G4g2 g2a2f2|g6 g6:|
